src/actions/16/boundingbox_bottom_right.svg

<svg
   width="16"
   height="16">
  <g
     id="boundingbox_bottom_left"
     transform="matrix(-1,0,0,1,16,0)">
    <path
       style="fill:#363636"
       d="M 4.5,1 A 0.50005,0.50005 0 0 0 4,1.5 V 7.1484375 A 0.50005,0.50005 0 0 0 4.6445312,7.6269531 C 4.9219638,7.5434711 5.2102875,7.5008922 5.5,7.5 5.7902852,7.5001631 6.0792859,7.5418983 6.3574219,7.625 A 0.50005,0.50005 0 0 0 7,7.1464844 V 1.5 A 0.50005,0.50005 0 0 0 6.5,1 Z M 5,2 H 6 V 6.5742187 C 5.8323979,6.552748 5.6694078,6.5000952 5.5,6.5 a 0.50005,0.50005 0 0 0 -0.00195,0 C 5.3292805,6.5004105 5.1669382,6.552597 5,6.5742187 Z M 8.8535156,9 A 0.50005,0.50005 0 0 0 8.375,9.6425781 C 8.4581017,9.9207141 8.4998369,10.209715 8.5,10.5 8.4991078,10.789712 8.4565289,11.078036 8.3730469,11.355469 A 0.50005,0.50005 0 0 0 8.8515625,12 H 14.5 A 0.50005,0.50005 0 0 0 15,11.5 v -2 A 0.50005,0.50005 0 0 0 14.5,9 Z m 0.5722657,1 H 14 v 1 H 9.4257813 C 9.447403,10.833062 9.4995895,10.67072 9.5,10.501953 A 0.50005,0.50005 0 0 0 9.5,10.5 C 9.4999048,10.330592 9.447252,10.167602 9.4257813,10 Z"
       id="path11" />
  </g>
  <path
     id="path1155"
     style="fill:#a0b6cb"
     d="M 10.5,6 A -4.5,4.5 0 0 1 15,10.5 -4.5,4.5 0 0 1 10.5,15 -4.5,4.5 0 0 1 6,10.5 -4.5,4.5 0 0 1 10.5,6 Z m 0,2 A -2.5,2.5 0 0 0 8,10.5 -2.5,2.5 0 0 0 10.5,13 -2.5,2.5 0 0 0 13,10.5 -2.5,2.5 0 0 0 10.5,8 Z" />
</svg>

<svg width="16" height="16">
    <path d="M4.5 1a.5.5 0 0 0-.5.5v5.648a.5.5 0 0 0 .645.479 3.002 3.002 0 0 1 1.712-.002A.5.5 0 0 0 7 7.146V1.5a.5.5 0 0 0-.5-.5ZM5 2h1v4.574c-.168-.021-.33-.074-.5-.074a.5.5 0 0 0-.002 0c-.169 0-.331.053-.498.074Zm3.854 7a.5.5 0 0 0-.479.643 3.001 3.001 0 0 1-.002 1.712.5.5 0 0 0 .479.645H14.5a.5.5 0 0 0 .5-.5v-2a.5.5 0 0 0-.5-.5Zm.572 1H14v1H9.426c.021-.167.074-.33.074-.498a.5.5 0 0 0 0-.002c0-.17-.053-.332-.074-.5Z" style="fill:#050505;opacity:.7" transform="matrix(-1 0 0 1 16 0)"/>
</svg>
